!!!COM: Music21
!!!OTL: Os Rueiros
!!!OMV: pezas_pasacorredoiras_os-rueiros_os-rueiros-partitura.musicxml
**kern
*part1
*staff1
*I"Bagpipes
*I'Bag
*clefG^2
*k[]
*M2/4
=1
!LO:TX:a:t=Allegretto
8ggL
8ggJ
8aaL
8ggJ
=
4gg
8eeL
8ccJ
=
4aa^
8bbL
8aaJ
=
4gg
4ee
=
8ddL
8eeJ
8ffL
8eeJ
=
4dd
8ddL
8eeJ
=
4ff
8ggL
8aaJ
=
2gg
=
8gg^ML
8ggJ
8aaL
8ggJ
!!linebreak:original
=
4gg
8eeL
8ccJ
=
4aa
8bbL
8aaJ
=
4gg
4ee
=
8ddL
8eeJ
8ffL
8eeJ
=
4dd
8ddL
8eeJ
=
4ff
8ee^mL
8ddJ
=
2cc
=||
*M2/4
!LO:TX:a:t=Allegretto
8ggL
8ggJ
8aaL
8ggJ
=
4gg
8eeL
8ccJ
=
4aa^
8bbL
8aaJ
!!linebreak:original
=
4gg
4ee
=
8ddL
8eeJ
8ffL
8eeJ
=
4dd
8ddL
8eeJ
=
4ff
8ggL
8aaJ
=
2gg
=
8gg^ML
8ggJ
8aaL
8ggJ
=
4gg
8eeL
8ccJ
=
4aa
8bbL
8aaJ
=
4gg
4ee
=
8ddL
8eeJ
8ffL
8eeJ
=
4dd
8ddL
8eeJ
!!linebreak:original
=
4ff
8ee^mL
8ddJ
=||
[2cc
=
8ccL]
8ggJ
8ffL
8eeJ
=||
8ddL
8eeJ
[4ff
=
8ffL]
8aaJ
8ffL
8ddJ
=
8eeL
8ffJ
[4gg
=
8ggL]
8ggJ
8ffL
8eeJ
=
4dd
8eeL
8ffJ
=
4gg
4aa
=
8ggL
8ffJ
[4ee
!!linebreak:original
=
8eeL]
8ggJ
8ffL
8eeJ
=
8ddL
8eeJ
[4ff
=
8ffL]
8aaJ
8ffL
8ddJ
=
8eeL
8ffJ
[4gg
=
8ggL]
8ggJ
8ffL
8eeJ
=
4dd
8ddL
8eeJ
=
8ffL
16ggL
16ffJJ
8eeL
8ddJ
=
[2cc
=
8ccL]
8ggJ
8ffL
8eeJ
!!pagebreak:original
=||
8ddL
8eeJ
[4ff
=
8ffL]
8aaJ
8ffL
8ddJ
=
8eeL
8ffJ
[4gg
=
8ggL]
8ggJ
8ffL
8eeJ
=
4dd
8eeL
8ffJ
=
4gg
4aa
=
8ggL
8ffJ
[4ee
=
8eeL]
8ggJ
8ffL
8eeJ
=
8ddL
8eeJ
[4ff
!!linebreak:original
=
8ffL]
8aaJ
8ffL
8ddJ
=
8eeL
8ffJ
[4gg
=
8ggL]
8ggJ
8ffL
8eeJ
=
4dd
8ddL
8eeJ
=
8ffL
16ggL
16ffJJ
8eeL
8ddJ
=
[2cc
=
2cc]
=||
*k[b-e-a-]
*E-:
8ccL
8ddJ
8ee-L
8ffJ
=
4gg
8aa-L
8ggJ
!!linebreak:original
=
4ff
8ee-L
8ffJ
=
4gg
4cc
=
8ccL
8ddJ
8ee-L
8ffJ
=
4gg
8aa-L
8ggJ
=
4ff
8ee-L
8ffJ
=
2gg
=
8ggL
8ggJ
8aa-L
8ggJ
=
4ff
8ddL
8ee-J
=
4ff
8ggL
8aa-J
=
4aa-
4gg
!!linebreak:original
=
8ccL
8ddJ
8ee-L
8ffJ
=
4aa-
4gg
=
4ff
8ee-L
8ddJ
=
2cc
=||
8ccL
8ddJ
8ee-L
8ffJ
=
4gg
8aa-L
8ggJ
=
4ff
8ee-L
8ffJ
=
4gg
4cc
=
8ccL
8ddJ
8ee-L
8ffJ
=
4gg
8aa-L
8ggJ
!!linebreak:original
=
4ff
8ee-L
8ffJ
=
2gg
=
8ggL
8ggJ
8aa-L
8ggJ
=
4ff
8ddL
8ee-J
=
4ff
8ggL
8aa-J
=
4aa-
4gg
=
8ccL
8ddJ
8ee-L
8ffJ
=
4aa-
4gg
=
4ff
8ee-L
8ddJ
=
2cc
=||
*-
!!!system-decoration: s1,s2
